X:1
T:Title
%%score [ ( 1 2 ) ( 3 4 ) ]
L:1/8
Q:1/4=120
M:4/4
K:C
V:1 treble nm=" " snm=" "
V:2 treble 
V:3 treble nm="Midi_74"
V:4 treble 
V:1
[K:E]"^James Montgomery\n1771-1854" E2 | B2 E2 GF ED |"^Stand up, and bless the Lord" E6 E2 | %3
w: Stand|up, and bless * the *|Lord, ye|
w: Stand|up, and bless * the *|Lord, the|
w: |||
 A2 Bc B2 EA | (G2 F4)"^Charles Lockhart\n1745-1815" F2 | G2 FE A2 GF | B2 AG c2 d2 | e2 EA G2 F2 | %8
w: peo- ple * of his *|choice, * stand|up, and * bless the *|Lord your * God with|heart and * soul and|
w: Lord your * God a *|dore; * stand|up, and * bless his *|glo- rious * name hence-|forth for * ev- er-|
w: |||||
 E6 || E2 | B2 E2 GF ED | E6 E2 | A2 Bc B2 EA | (G2 F4) F2 | G2 FE A2 GF | B2 AG c2 d2 | %16
w: voice.|Though|high a- bove * all *|praise, a-|bove all * bless- ing *|high, * who|would not * fear his *|ho- ly * Name, and|
w: more.||||||||
w: |God|is our strength * and *|song, and|his sal * va- tion *|ours; * then|be his * love in *|Christ pro * claimed with|
 e2 EA G2 F2 | E6 || %18
w: praise and * mag- ni-|fy?|
w: ||
w: all our * ran- somed|powers.|
V:2
[K:E] x2 | x8 | x8 | x8 | x8 | x8 | x8 | x8 | x6 || B,2 | B,2 C2 C2 B,2 | B,6 B,2 | E2 E2 E2 CF | %13
w: |||||||||||||
w: |||||||||O|for the liv- ing|flame from|his own al- tar *|
 (E2 D4) D2 | E2 DE F2 ED | E2 E2 E2 F2 | E2 EF E2 D2 | E6 || %18
w: |||||
w: brought, * to|touch our * lips, our *|minds in- spire, and|wing to * heav'n our|thought!|
V:3
 z2 | z8 | z8 | z8 | z8 |[M:4/4] z8 | z8 | z8 | z6 ||[K:E][M:4/4][K:bass] G,2 | F,2 G,2 A,2 G,F, | %11
 G,6 G,2 | A,2 G,A, B,2 C2 | B,6 B,2 | B,2 B,2 C2 B,2 | %15
"^This edition produced by Andrew Sims 2014" B,2 E=D C2 A,2 | %16
 B,2 C2 B,2"^Back to top for verse 5" B,A, | G,6 || %18
V:4
 x2 | x8 | x8 | x8 | x8 |[M:4/4] x8 | x8 | x8 | x6 ||[K:E][M:4/4][K:bass] E,2 | D,2 C,2 A,,2 B,,2 | %11
 E,6 =D,2 | C,2 B,,A,, G,,2 A,,2 | B,,6 B,,2 | E,2 A,G, F,2 B,A, | G,2 CB, A,2 F,2 | %16
 G,2 A,F, B,2 B,,2 | E,6 || %18

